build/images/content/video/img_4.svg

<svg width="64" height="64" fill="none" xmlns="http://www.w3.org/2000/svg"><path fill-rule="evenodd" clip-rule="evenodd" d="M38 18v-3.238l-3.231 3.879A1.005 1.005 0 0134 19H19v-2h14.531l4.7-5.641A1 1 0 0140 12v5h6v2h-7a1 1 0 01-1-1zm-26 9.5v-3c0-1.721 1.218-3.031 3-3.392v9.784c-1.782-.361-3-1.671-3-3.392zM30 36h5a1 1 0 010 2h-5a1 1 0 010-2zm25.421 13.304l-1.522-.721a.958.958 0 00-.192-.29C49.096 43.682 49.987 32.198 50 32V17c0-9.374-8.075-17-18-17-9.532 0-17 7.468-17 17v2.076c-2.91.412-5 2.603-5 5.424v3c0 2.913 2.227 5.156 5.285 5.462a7.01 7.01 0 006.246 5.015C23.956 41.958 27.912 45 32.5 45 40.103 45 46 36.668 46 29.5V21h-2v8.5C44 35.614 38.87 43 32.5 43c-3.398 0-6.435-2.11-8.536-5H27c.062 0 .115-.024.174-.035A2.993 2.993 0 0030 40h5c1.654 0 3-1.346 3-3s-1.346-3-3-3h-5a2.993 2.993 0 00-2.826 2.035C27.115 36.024 27.062 36 27 36h-4.276C21.637 33.923 21 31.636 21 29.5V21h-2v8.5c0 2.047.494 4.185 1.359 6.201C18.41 35.018 17 33.179 17 31V17c0-8.552 6.448-15 15-15 8.822 0 16 6.729 16 15l.004 14.917c-.036.431-.711 9.104 2.277 14.952l-5.853-2.772c-.016-.008-.032-.008-.048-.015-.035-.015-.071-.021-.109-.032a.906.906 0 00-.241-.039 1.002 1.002 0 00-.397.068c-.018.007-.035.005-.052.013l-.011.008a1.022 1.022 0 00-.265.181C40.11 47.368 36.201 49 32 49c-4.499 0-7.374-1.887-10.305-4.719-.056-.055-.123-.095-.189-.135-.013-.007-.02-.02-.032-.027l-.009-.003a.987.987 0 00-.337-.101c-.035-.005-.067-.003-.103-.003a.994.994 0 00-.248.024c-.036.009-.071.016-.106.028-.024.008-.047.009-.069.019L8.579 49.304C3.367 51.772 0 57.093 0 62.859V64h2v-1.141c0-4.997 2.918-9.609 7.405-11.735l9.347-4.058-5.633 10.46A1.002 1.002 0 0014 59a.932.932 0 00.196-.02l10-2a.999.999 0 00.784-1.176.993.993 0 00-1.176-.784l-7.915 1.583 5.382-9.996C23.92 48.984 27.127 51 32 51c4.218 0 8.301-1.551 11.652-4.366l4.617 10-8.073-1.614a.994.994 0 00-1.176.784.999.999 0 00.784 1.176l10 2a.999.999 0 001.104-1.399l-4.845-10.497 8.502 4.026C59.082 53.25 62 57.862 62 62.859V64h2v-1.141c0-5.766-3.367-11.087-8.579-13.555z" fill="#223D72"/></svg>

<svg width="64" height="64" viewBox="0 0 64 64" fill="none" xmlns="http://www.w3.org/2000/svg">
<path fill-rule="evenodd" clip-rule="evenodd" d="M38 18V14.762L34.769 18.641C34.578 18.868 34.297 19 34 19H19V17H33.531L38.231 11.359C38.502 11.036 38.946 10.917 39.341 11.06C39.736 11.203 40 11.579 40 12V17H46V19H39C38.447 19 38 18.553 38 18ZM12 27.5V24.5C12 22.779 13.218 21.469 15 21.108V26V30.892C13.218 30.531 12 29.221 12 27.5ZM30 36H35C35.552 36 36 36.448 36 37C36 37.552 35.552 38 35 38H30C29.448 38 29 37.552 29 37C29 36.448 29.448 36 30 36ZM55.421 49.304L53.899 48.583C53.852 48.479 53.793 48.379 53.707 48.293C49.096 43.682 49.987 32.198 50 32V17C50 7.626 41.925 0 32 0C22.468 0 15 7.468 15 17V19.076C12.09 19.488 10 21.679 10 24.5V27.5C10 30.413 12.227 32.656 15.285 32.962C16.094 35.724 18.561 37.778 21.531 37.977C23.956 41.958 27.912 45 32.5 45C40.103 45 46 36.668 46 29.5V21H44V29.5C44 35.614 38.87 43 32.5 43C29.102 43 26.065 40.89 23.964 38H27C27.062 38 27.115 37.976 27.174 37.965C27.578 39.145 28.686 40 30 40H35C36.654 40 38 38.654 38 37C38 35.346 36.654 34 35 34H30C28.686 34 27.578 34.855 27.174 36.035C27.115 36.024 27.062 36 27 36H22.724C21.637 33.923 21 31.636 21 29.5V21H19V29.5C19 31.547 19.494 33.685 20.359 35.701C18.41 35.018 17 33.179 17 31V26V17C17 8.448 23.448 2 32 2C40.822 2 48 8.729 48 17L48.004 31.917C47.968 32.348 47.293 41.021 50.281 46.869L44.428 44.097C44.412 44.089 44.396 44.089 44.38 44.082C44.345 44.067 44.309 44.061 44.271 44.05C44.191 44.026 44.112 44.013 44.03 44.011C43.992 44.009 43.957 44.009 43.919 44.012C43.82 44.02 43.725 44.043 43.633 44.079C43.615 44.086 43.598 44.084 43.581 44.092C43.577 44.094 43.574 44.098 43.57 44.1C43.475 44.146 43.384 44.205 43.305 44.281C40.11 47.368 36.201 49 32 49C27.501 49 24.626 47.113 21.695 44.281C21.639 44.226 21.572 44.186 21.506 44.146C21.493 44.139 21.486 44.126 21.474 44.119C21.471 44.117 21.468 44.118 21.465 44.116C21.358 44.061 21.245 44.029 21.128 44.015C21.093 44.01 21.061 44.012 21.025 44.012C20.942 44.009 20.86 44.018 20.777 44.036C20.741 44.045 20.706 44.052 20.671 44.064C20.647 44.072 20.624 44.073 20.602 44.083L8.579 49.304C3.367 51.772 0 57.093 0 62.859V64H2V62.859C2 57.862 4.918 53.25 9.405 51.124L18.752 47.066L13.119 57.526C12.936 57.867 12.966 58.283 13.196 58.595C13.387 58.853 13.687 59 14 59C14.065 59 14.131 58.994 14.196 58.98L24.196 56.98C24.737 56.872 25.089 56.346 24.98 55.804C24.872 55.263 24.35 54.906 23.804 55.02L15.889 56.603L21.271 46.607C23.92 48.984 27.127 51 32 51C36.218 51 40.301 49.449 43.652 46.634L48.269 56.634L40.196 55.02C39.653 54.906 39.128 55.262 39.02 55.804C38.911 56.346 39.263 56.872 39.804 56.98L49.804 58.98C49.869 58.994 49.935 59 50 59C50.303 59 50.594 58.862 50.785 58.619C51.019 58.324 51.065 57.923 50.908 57.581L46.063 47.084L54.565 51.11C59.082 53.25 62 57.862 62 62.859V64H64V62.859C64 57.093 60.633 51.772 55.421 49.304Z" fill="#223D72"/>
</svg>
